X:39
T:Quick Step,2voices. JGi.039
M:2/4
L:1/8
Q:1/4=90
S:Joshua Gibbons MS,1823,Tealby,Lincs.
R:quick step
O:Tealby,Lincolnshire
Z:VMP/R.Greig, 2009
K:C
[V:1]|:c’|geed|c3G|AcGc|AcGc’|geed|c3e|dg/2a/2 gf|g3:|
[V:2]|:z|eccG|E3E|F2E2|F2E2|eccG|E3c|BB2B|B3:|
[V:1]|:g|affe|defa|geed|cd eG|AcGc|AcGc’|gfed|c3:|
[V:2]|:z|fddc|Bcde|eccG|EGEE|F2E2|F2Ef|edcG|E3:|

